X:1
T:Title
%%score { 1 | 2 }
L:1/8
M:3/4
K:Db
V:1 treble nm="Grand Piano"
V:2 bass 
V:1
 z2 z2[Q:1/4=100] D2 | DF [FA]2 F2 | GB B2 d2 | [Fd]3 [FA] [FA][DF] |[M:2/4] [CE]4 |[M:1/4] [CF]2 | %6
[M:3/4] DF [FA]2 F2 | GB B2 B2 | A3 A [A,EG][K:bass][G,CE] |[M:2/4] [F,D]4 | %10
[M:1/4][K:treble] [DFA]2 |[M:3/4] B=A B2 B2 | [FA][_F=G] [=FA]2 F2 | FF A2 F2 |[M:2/4] [CE]4 | %15
[M:1/4] [CF]2 |[M:3/4] DF [FA]2 F2 | GB B2 B2 | A3 A [A,EG][K:bass][G,CE] |[M:2/4] [F,D]4 | %20
[M:1/4][K:treble] [DFA]2 |[M:3/4] B=A B2 B2 | [FA][_F=G] [=FA]2 F2 | FF A2 F2 |[M:2/4] [CE]4 | %25
[M:1/4] [CF]2 |[M:3/4] DF [FA]2 F2 | GB B2 B2 | %28
 A3 A[Q:1/4=88] [EG][CE][Q:1/4=98][Q:1/4=97][Q:1/4=95][Q:1/4=94][Q:1/4=92][Q:1/4=91][Q:1/4=89][Q:1/4=86][Q:1/4=84][Q:1/4=83][Q:1/4=81][Q:1/4=80][Q:1/4=78][Q:1/4=77] | %29
[M:2/4] D4 |] %30
V:2
 z2 z2 [D,F,]2 | [D,F,][D,A,D] [D,A,]2 [D,A,D]2 | [G,B,D][G,DG] [G,DG]2 [G,B,G]2 | %3
 [D,A,]3 [D,A,] [D,A,][D,A,] |[M:2/4] [A,,A,]4 |[M:1/4] [A,,A,]2 | %6
[M:3/4] [D,F,][D,A,D] [D,A,]2 [D,A,D]2 | [G,B,D][K:treble][G,DG] [G,DG]2 [G,DG]2 | %8
 [A,DF]3 [A,F][K:bass] A,,A,, |[M:2/4] D,4 |[M:1/4] D,2 |[M:3/4] [G,DG][G,CG] [G,DG]2 [G,DG]2 | %12
 [D,D][D,D] [D,D]2 [D,A,D]2 | [D,A,D][D,A,D] [F,A,D]2 [D,A,D]2 |[M:2/4] [A,,A,]4 | %15
[M:1/4] [A,,A,]2 |[M:3/4] [D,F,][D,A,D] [D,A,]2 [D,A,D]2 | %17
 [G,B,D][K:treble][G,DG] [G,DG]2 [G,DG]2 | [A,DF]3 [A,F][K:bass] A,,A,, |[M:2/4] D,4 |[M:1/4] D,2 | %21
[M:3/4] [G,DG][G,CG] [G,DG]2 [G,DG]2 | [D,D][D,D] [D,D]2 [D,A,D]2 | %23
 [D,A,D][D,A,D] [F,A,D]2 [D,A,D]2 |[M:2/4] [A,,A,]4 |[M:1/4] [A,,A,]2 | %26
[M:3/4] [D,F,][D,A,D] [D,A,]2 [D,A,D]2 | [G,B,D][K:treble][G,DG] [G,DG]2 [G,DG]2 | %28
 [A,DF]3 [A,F][K:bass] [A,,A,][A,,G,] |[M:2/4] [D,F,]4 |] %30

